X: 19160
T: Iron Ring, The
R: jig
M: 6/8
K: Amajor
F2c cBc|FBA BcA|F2c dcd|e2d cBc|
F2c cBc|FBA Bcd|e2d cBF|CEF BAG||
F2c cBc|FBA BcA|F2c dcd|e2d cBc|
F2c cBc|FBA Bcd|e2d c/B/AF|DEF E2D||
CDF AFB|dec BAF|CEF AFB|c2c- c3|
CDF AFB|dec BAF|CEF ABE|F3- FBc||
d2d- dcB|c2c- cBA|BAG GAB|AGF FBc|
d2d- dcB|c2c- cBA|BAG ^EFG|F3-FBc||
d2d- dcB|c2c- cBA|BAG GAB|AGF FBc|
d2d- d2B/c/d|e2e- e(3B/c/d/e|f2f- fga|g6||

